svg/remove_user.svg

<svg xmlns="http://www.w3.org/2000/svg" viewBox="0 0 32 32" enable-background="new 0 0 32 32"><path d="M 14 4 C 10.145852 4 7 7.1458513 7 11 C 7 13.408843 8.2311596 15.55212 10.09375 16.8125 C 6.5266132 18.342333 4 21.881262 4 26 L 6 26 C 6 21.569334 9.5693339 18 14 18 C 15.376046 18 16.65445 18.35784 17.78125 18.96875 C 16.671114 20.342565 16 22.103031 16 24 C 16 28.406433 19.593567 32 24 32 C 28.406433 32 32 28.406433 32 24 C 32 19.593567 28.406433 16 24 16 C 22.252849 16 20.630732 16.574679 19.3125 17.53125 C 18.870028 17.253247 18.392372 17.020656 17.90625 16.8125 C 19.76884 15.55212 21 13.408843 21 11 C 21 7.1458513 17.854148 4 14 4 z M 14 6 C 16.773268 6 19 8.2267317 19 11 C 19 13.773268 16.773268 16 14 16 C 11.226732 16 9 13.773268 9 11 C 9 8.2267317 11.226732 6 14 6 z M 24 18 C 27.325553 18 30 20.674447 30 24 C 30 27.325553 27.325553 30 24 30 C 20.674447 30 18 27.325553 18 24 C 18 20.674447 20.674447 18 24 18 z M 21.71875 20.28125 L 20.28125 21.71875 L 22.5625 24 L 20.28125 26.28125 L 21.71875 27.71875 L 24 25.4375 L 26.28125 27.71875 L 27.71875 26.28125 L 25.4375 24 L 27.71875 21.71875 L 26.28125 20.28125 L 24 22.5625 L 21.71875 20.28125 z" color="#000" overflow="visible" enable-background="accumulate"/></svg>

<svg xmlns="http://www.w3.org/2000/svg" viewBox="0 0 32 32"><path d="M14 4c-3.854 0-7 3.146-7 7 0 2.41 1.23 4.552 3.094 5.813C6.527 18.343 4 21.88 4 26h2c0-4.43 3.57-8 8-8 1.376 0 2.654.358 3.78.97C16.67 20.342 16 22.102 16 24c0 4.406 3.594 8 8 8 4.406 0 8-3.594 8-8 0-4.406-3.594-8-8-8-1.747 0-3.37.575-4.688 1.53-.442-.277-.92-.51-1.406-.718C19.77 15.553 21 13.41 21 11c0-3.854-3.146-7-7-7zm0 2c2.773 0 5 2.227 5 5s-2.227 5-5 5-5-2.227-5-5 2.227-5 5-5zm10 12c3.326 0 6 2.674 6 6s-2.674 6-6 6-6-2.674-6-6 2.674-6 6-6zm-2.28 2.28l-1.44 1.44L22.563 24l-2.28 2.28 1.437 1.44L24 25.437l2.28 2.28 1.44-1.437L25.437 24l2.28-2.28-1.437-1.44L24 22.563l-2.28-2.28z"/></svg>
